X: 6
T: Speed The Plough
R: reel
M: 4/4
L: 1/8
K: Gmaj
GABc dedB | dedB dgdB | cecA BdBG | AcAG FDEF |GABc dedB | dedB dgdB | cecA BdBG |1 AcAF G2 z G :|2 AcAF G2 (3def ||:g z gg gdBd | gGfG eGdG | cecA BdBG | AcAG FDEF | GABc dBGB | efge dBGd | cdec BAGB |1 AGFA G2 (3def :|2 AGFA G2 z2 |


Tune 1191	Setting 14472

